X:13
T: Itele
O:rumania
R:
B:
D:
Z: John Chambers <jc@trillian.mit.edu> http://trillian.mit.edu/~jc/music/
M: 2/4
L: 1/16
K: D
A2 \
|: "D"^gafd ~e2ed | edfd ~e2ed | ^gafd ~e2ed | edfd ~edA2 |
|  "D"^gafd ~e2ed | edfd ~e2ed | ^gafd ~e2ed | "A7"efec "D"d2z2 :|
|: "Gm"^fg2g g=fed | ^fg2g g=fed | ^fg2g g=fed | "A"^gaba g=fed |
|  "Gm"^fg2g g=fed | ^fg2g g=fed | "A"^gaba g=fec | "D"dA"A7"Bc "D"d2z2 :|
%%sep 5 5 200
P: Bb instruments
K: E
B2 \
|: "E"^abge ~f2fe | fege ~f2fe | ^abge ~f2fe | fege ~feB2 |
|  "E"^abge ~f2fe | fege ~f2fe | ^abge ~f2fe | "B7"fgfd "E"e2z2 :|
|: "Am"^ga2a a=gfe | ^ga2a a=gfe | ^ga2a a=gfe | "B"^abc'b a=gfe |
|  "Am"^ga2a a=gfe | ^ga2a a=gfe | "B"^abc'b a=gfd | "E"eB"B7"cd "E"e2z2 :|





